svgs/sharp-light/arrows-to-dot.svg

<svg xmlns="http://www.w3.org/2000/svg" viewBox="0 0 512 512"><!--! Font Awesome Pro 7.1.0 by @fontawesome - https://fontawesome.com License - https://fontawesome.com/license (Commercial License) Copyright 2025 Fonticons, Inc. --><path fill="currentColor" d="M272 16l0-16-32 0 0 137.4c-42-42-63.4-63.4-64-64l-22.6 22.6 11.3 11.3 80 80 11.3 11.3 11.3-11.3 80-80 11.3-11.3-22.6-22.6-11.3 11.3-52.7 52.7 0-121.4zm16 240a32 32 0 1 0 -64 0 32 32 0 1 0 64 0zm70.6 160l-11.3-11.3-80-80-11.3-11.3-11.3 11.3-80 80-11.3 11.3 22.6 22.6 11.3-11.3 52.7-52.7 0 137.4 32 0 0-137.4 52.7 52.7 11.3 11.3 22.6-22.6zM96 153.4L73.4 176c.6 .6 22 22 64 64L0 240 0 272 137.4 272c-42 42-63.4 63.4-64 64l22.6 22.6 11.3-11.3 80-80 11.3-11.3-11.3-11.3-80-80-11.3-11.3zm320 0l-11.3 11.3-80 80-11.3 11.3 11.3 11.3 80 80 11.3 11.3 22.6-22.6-11.3-11.3-52.7-52.7 137.4 0 0-32-137.4 0 52.7-52.7 11.3-11.3-22.6-22.6z"/></svg>

<svg xmlns="http://www.w3.org/2000/svg" viewBox="0 0 512 512"><!--! Font Awesome Pro 6.6.0 by @fontawesome - https://fontawesome.com License - https://fontawesome.com/license (Commercial License) Copyright 2024 Fonticons, Inc. --><path d="M272 16l0-16L240 0l0 16 0 121.4L187.3 84.7 176 73.4 153.4 96l11.3 11.3 80 80L256 198.6l11.3-11.3 80-80L358.6 96 336 73.4 324.7 84.7 272 137.4 272 16zm16 240a32 32 0 1 0 -64 0 32 32 0 1 0 64 0zm70.6 160l-11.3-11.3-80-80L256 313.4l-11.3 11.3-80 80L153.4 416 176 438.6l11.3-11.3L240 374.6 240 496l0 16 32 0 0-16 0-121.4 52.7 52.7L336 438.6 358.6 416zM96 153.4L73.4 176l11.3 11.3L137.4 240 16 240 0 240l0 32 16 0 121.4 0L84.7 324.7 73.4 336 96 358.6l11.3-11.3 80-80L198.6 256l-11.3-11.3-80-80L96 153.4zm320 0l-11.3 11.3-80 80L313.4 256l11.3 11.3 80 80L416 358.6 438.6 336l-11.3-11.3L374.6 272 496 272l16 0 0-32-16 0-121.4 0 52.7-52.7L438.6 176 416 153.4z"/></svg>
